X: 406
T: Blue Goose
C:Buddy Thomas
B: jims roots
M:C|
L:1/8
Q: 1/4=100
K:G
V:1 
"G"[B2g]J([d2b][d3b])[dd'] | [db][B2g] [Ae][B3g]b | g2zb g2zb | gedc "To Coda"BAGD |
|:[P:B Part]"G"GFGA BAGD | "C"CB,CD EFG2 | "G"GFGA BAGE | "D"Dd2e d2([G,2D] | "G"[G,2D])G,A, B,A,A,B, |
"C"CB,CD EFGE | "G"dg2b gedc | [1 "D"BGAF "G"G2DE:|[2 "D"BGAF "G""D.C. al coda"G4 |]
O"tag:" [G,D][G,2D][G,D] [G,3D]([G,D] | [G,D])[G,D] [G,2D][G,2D][G,2D] | [G,D][G,D][G,D][G,D] [G,D][G,D][G,D][G,D] | [G,D][G,D] [G,2D][B,4G]|]
V:[B2g 
J([d2b][d3b])[dd'] | [db][d3g] [Ae][d2g]b | g2zb gebg |[1 "D"edBA "G"G4 :|[2 "D"edBA "G"G2DE ||
% abcbook-tune_id 6298c2458948a2aa53f3cd85


% abcbook-boost 0
% abcbook-tablature 
% abcbook-transpose 
% abcbook-lastupdated 1654178373394
% abcbook-soundfonts 
% abcbook-repeats 1


